Default.style/ferry.svg

<svg width="32" height="30" xmlns="http://www.w3.org/2000/svg"><path d="M28.5 30c-1.934 0-3.5-.896-3.5-2h-1c0 1.104-1.566 2-3.5 2-.171 0-.335-.016-.5-.029-.165.013-.329.029-.5.029-1.934 0-3.5-.896-3.5-2h-1c0 1.104-1.567 2-3.5 2-1.934 0-3.5-.896-3.5-2H7c0 1.104-1.567 2-3.5 2-1.934 0-3.5-.896-3.5-2v-4c0 1.104 1.566 2 3.5 2 1.933 0 3.5-.896 3.5-2h1c0 1.104 1.566 2 3.5 2 1.933 0 3.5-.896 3.5-2h1c0 1.104 1.566 2 3.5 2 .171 0 .335-.016.5-.029.165.013.329.029.5.029 1.934 0 3.5-.896 3.5-2h1c0 1.104 1.566 2 3.5 2s3.5-.896 3.5-2v4c0 1.104-1.566 2-3.5 2ZM25 22h-1c0 1.104-1.566 2-3.5 2-.171 0-.335-.016-.5-.029-.165.013-.329.029-.5.029-.98 0-1.863-.232-2.5-.604V10l13 6-3.41 7.673C25.634 23.316 25 22.701 25 22Zm-10 0c0 1.104-1.567 2-3.5 2-1.934 0-3.5-.896-3.5-2H7c0 .701-.635 1.316-1.59 1.673L2 16l13-6v12Zm8-11-7-4-7 4V4.999 5h14v6Zm-2-7H11a1 1 0 0 1-1-1V1a1 1 0 0 1 1-1h10a1 1 0 0 1 1 1v2a1 1 0 0 1-1 1Zm-9-3a1 1 0 1 0 0 2h3V1h-3Zm8 0h-3v2h3a1 1 0 0 0 0-2Z" fill="#888" fill-rule="evenodd"/></svg>

<?xml version="1.0" encoding="UTF-8" standalone="no"?>
<svg width="32px" height="30px" viewBox="0 0 32 30" version="1.1" xmlns="http://www.w3.org/2000/svg" xmlns:xlink="http://www.w3.org/1999/xlink" xmlns:sketch="http://www.bohemiancoding.com/sketch/ns">
    <!-- Generator: Sketch 3.2.2 (9983) - http://www.bohemiancoding.com/sketch -->
    <title>boat</title>
    <desc>Created with Sketch.</desc>
    <defs></defs>
    <g id="p" stroke="none" stroke-width="1" fill="none" fill-rule="evenodd" sketch:type="MSPage">
        <g id="boat" sketch:type="MSLayerGroup" fill="#888888">
            <path d="M28.5,30 C26.566,30 25,29.104 25,28 L24,28 C24,29.104 22.434,30 20.5,30 C20.329,30 20.165,29.984 20,29.971 C19.835,29.984 19.671,30 19.5,30 C17.566,30 16,29.104 16,28 L15,28 C15,29.104 13.433,30 11.5,30 C9.566,30 8,29.104 8,28 L7,28 C7,29.104 5.433,30 3.5,30 C1.566,30 0,29.104 0,28 L0,24 C0,25.104 1.566,26 3.5,26 C5.433,26 7,25.104 7,24 L8,24 C8,25.104 9.566,26 11.5,26 C13.433,26 15,25.104 15,24 L16,24 C16,25.104 17.566,26 19.5,26 C19.671,26 19.835,25.984 20,25.971 C20.165,25.984 20.329,26 20.5,26 C22.434,26 24,25.104 24,24 L25,24 C25,25.104 26.566,26 28.5,26 C30.434,26 32,25.104 32,24 L32,28 C32,29.104 30.434,30 28.5,30 L28.5,30 Z M25,22 L24,22 C24,23.104 22.434,24 20.5,24 C20.329,24 20.165,23.984 20,23.971 C19.835,23.984 19.671,24 19.5,24 C18.52,24 17.637,23.768 17,23.396 L17,10 L30,16 L26.59,23.673 C25.634,23.316 25,22.701 25,22 L25,22 Z M15,22 C15,23.104 13.433,24 11.5,24 C9.566,24 8,23.104 8,22 L7,22 C7,22.701 6.365,23.316 5.41,23.673 L2,16 L15,10 L15,22 L15,22 Z M23,11 L23,11 L16,7 L9,11 L9,5 C9,5 9,5 9,4.999 L9,5 L9.999,5 L10,5 L22,5 L23,5 L23,6 L23,11 L23,11 Z M21,4 L17,4 L15,4 L11,4 C10.447,4 10,3.552 10,3 L10,1 C10,0.448 10.447,0 11,0 L21,0 C21.553,0 22,0.448 22,1 L22,3 C22,3.552 21.553,4 21,4 L21,4 Z M12,1 C11.447,1 11,1.448 11,2 C11,2.552 11.447,3 12,3 L15,3 L15,1 L12,1 L12,1 Z M20,1 L17,1 L17,3 L20,3 C20.552,3 21,2.552 21,2 C21,1.448 20.552,1 20,1 L20,1 Z" id="Shape" sketch:type="MSShapeGroup"></path>
        </g>
    </g>
</svg>
